X: 127
T:Giga Ferrarese
M:6/8
L:1/8
R:Jig
Z:Ian Roberts
K:G
d | \
BGB AFA | GFG GAB | cBc edc | BdB G2A |
Bcd ^cde | d^cd FGA | BAG FGE | D3- D2 ::
d | \
ded ded | ^cBc A2B | =cBc edc | BdB G2A |
BDB BDB | cEc cEc | BcB AGF | F2G G2 :|

